X:1
T:Regina Caelis
T:Andrea Mattioli 1617-1679
T:Regina Caelis
T:Antiphone for the Feast of Maria 
T:(c) Wim Looyestijn - 2018. May be freely copied for non-commercial use.
T:(c) Wim Looyestijn - 2018. May be freely copied for non-commercial use.
T:(c) Wim Looyestijn - 2018. May be freely copied for non-commercial use.
T:(c) Wim Looyestijn - 2018. May be freely copied for non-commercial use.
T:(c) Wim Looyestijn - 2018. May be freely copied for non-commercial use.
T:(c) Wim Looyestijn - 2018. May be freely copied for non-commercial use.
T:(c) Wim Looyestijn - 2018. May be freely copied for non-commercial use.
T:(c) Wim Looyestijn - 2018. May be freely copied for non-commercial use.
T:(c) Wim Looyestijn - 2018. May be freely copied for non-commercial use.
T:(c) Wim Looyestijn - 2018. May be freely copied for non-commercial use.
T:(c) Wim Looyestijn - 2018. May be freely copied for non-commercial use.
T:(c) Wim Looyestijn - 2018. May be freely copied for non-commercial use.
T:(c) Wim Looyestijn - 2018. May be freely copied for non-commercial use.
T:(c) Wim Looyestijn - 2018. May be freely copied for non-commercial use.
T:(c) Wim Looyestijn - 2018. May be freely copied for non-commercial use.
T:(c) Wim Looyestijn - 2018. May be freely copied for non-commercial use.
T:(c) Wim Looyestijn - 2018. May be freely copied for non-commercial use.
T:(c) Wim Looyestijn - 2018. May be freely copied for non-commercial use.
T:(c) Wim Looyestijn - 2018. May be freely copied for non-commercial use.
T:(c) Wim Looyestijn - 2018. May be freely copied for non-commercial use.
T:(c) Wim Looyestijn - 2018. May be freely copied for non-commercial use.
T:(c) Wim Looyestijn - 2018. May be freely copied for non-commercial use.
T:(c) Wim Looyestijn - 2018. May be freely copied for non-commercial use.
T:(c) Wim Looyestijn - 2018. May be freely copied for non-commercial use.
T:(c) Wim Looyestijn - 2018. May be freely copied for non-commercial use.
T:(c) Wim Looyestijn - 2018. May be freely copied for non-commercial use.
T:(c) Wim Looyestijn - 2018. May be freely copied for non-commercial use.
T:(c) Wim Looyestijn - 2018. May be freely copied for non-commercial use.
T:(c) Wim Looyestijn - 2018. May be freely copied for non-commercial use.
T:(c) Wim Looyestijn - 2018. May be freely copied for non-commercial use.
C:Andrea Mattioli
C:1617-1679
Z:(c) Wim Looyestijn - 2018. May be freely copied for non-commercial use.
%%score 1 [ 2 3 ] 4
L:1/8
Q:1/4=120
M:4/4
K:F
V:1 bass nm="Voce"
V:2 treble nm="Violino-1"
V:3 treble nm="Violino-2"
V:4 bass nm="Basso continuo"
V:1
 x8 | z8 | x8 |"^Sinfonia" z8 | z8 | z8 | z8 | z8 | z8 | z8 | z8 |[M:3/2]"^Allegro" z12 | z12 | %13
w: |||||||||||||
 z12 | z12 | z12 | z12 | z12 | z12 | z12 | z12 | z12 | z12 | z4 z4 C,4 | F,4 F,4 G,4 | A,4 F,4 z4 | %26
w: ||||||||||Re-|gi- na, Re-|gi- na,|
 z4 z4 C,4 | F,4 F,4 G,4 | A,4 F,4 A,4 | B,4 G,4 C4 | F,2 E,2 F,2 G,2 A,2 B,2 | C4 G,4 C4 | %32
w: Re-|gi- na, Re-|gi- na, Re-|gi- * na|cæ- * * * * *|* li læ-|
 A,4 F,4 z4 | z4 z4 C4 | A,4 F,4 C,4 | F,2 G,2 F,2 E,2 D,2 C,2 | B,,2 F,2 G,2 A,2 B,2 A,2 | %37
w: ta- re,|læ-|ta- re, læ-|ta- * * * * *||
 G,2 A,2 G,2 F,2 E,2 D,2 | C,2 G,2 A,2 B,2 C2 B,2 | A,2 B,2 A,2 G,2 F,2 E,2 | D,6 E,2 F,4 | %41
w: |||* re, al-|
 B,,4 C,8 | F,12 | z12 | z12 | z12 | z12 | z2 G,2 A,2 B,2 C2 B,2 | A,2 B,2 A,2 G,2 F,2 E,2 | %49
w: le- lu-|ia,|||||al- * * * *||
 D,2 A,2 B,2 C2 D2 C2 | B,2 C2 B,2 A,2 G,2 F,2 | E,2 D,2 E,2 C,2 D,2 E,2 | F,4 G,4 A,4 | G,12 | %54
w: |||* * le-|lu-|
 C,8 G,4 | E,4 C,4 z4 | z4 z4 G,4 | E,2 F,2 E,2 D,2 C,2 B,,2 | A,,2 E,2 F,2 G,2 A,2 G,2 | %59
w: ia, læ-|ta- re,|læ-|ta- * * * * *||
 F,2 A,2 B,2 C2 D2 C2 | B,2 C2 B,2 A,2 G,2 F,2 | E,2 G,2 A,2 B,2 C2 B,2 | A,6 B,2 C4 | F,4 G,8 | %64
w: |||* re, al-|le- lu-|
 C,4 z2 C,2 D,2 E,2 | F,2 C,2 D,2 E,2 F,2 E,2 | D,4 z2 F,2 G,2 A,2 | B,2 F,2 G,2 A,2 B,2 A,2 | %68
w: ia, al- * *||||
 G,2 A,2 G,2 F,2 E,2 D,2 | C,4 z2 G,2 A,2 B,2 | C2 G,2 A,2 B,2 C2 B,2 | A,2 B,2 A,2 G,2 F,2 E,2 | %72
w: ||||
 D,6 E,2 F,4 | B,,4 C,8 | F,,4 F,2 G,2 E,2 G,2 | F,8 z4 | z4 F,2 G,2 E,2 G,2 | %77
w: |le- lu-|ia, al- * * *|||
 F,2 G,2 F,2 E,2 D,2 C,2 | B,,8 A,,4- | A,,4 C,8 | F,,4 F,2 G,2 E,2 G,2 | F,2 G,2 F,2 E,2 D,2 C,2 | %82
w: |* le-|* lu-|ia, al- * * *||
 B,,8 A,,4- | A,,4 C,8 | F,,8 z4 |[M:4/4]"^Adagio" z2 C,4 C,2 | z _E,D,C, G,4 | G,B,A,G, CCB,B, | %88
w: * le-|* lu-|ia.|Qui- a|quem me- ru- i-|sti, quem me- ru- i- sti, me- ru-|
 A,2 A,B, G,G, F,G,/F,/ | _E,4 D,4 |"^Allegro" z2 z/ D,/E,/F,/ G,/A,/F,/G,/ _E,/F,/D,/E,/ | %91
w: is- ti por- ta- * * * *|* re,|al- * * * * * * * * * *|
 C,/C,/D,/E,/ F,/G,/_E,/F,/ D,/F,/G,/A,/ B,/C/A,/B,/ | G,D, A,2 D,2 z/ D,/E,/F,/ | %93
w: |* le- lu- ia, al- * *|
 G,2 z/ G,/A,/B,/ C/D/B,/C/ A,/B,/G,/A,/ | F,2 z/ F,/G,/A,/ B,2 z/ G,/A,/B,/ | %95
w: ||
 C2 z/ C,/D,/E,/ F,/G,/_E,/F,/ D,/E,/C,/D,/ | B,,2 z/ B,,/C,/D,/ _E,2 z/ C,/D,/E,/ | %97
w: ||
 F,2 z/ D,/E,/F,/ G,/A,/F,/G,/ _E,/F,/D,/E,/ | C,G,, D,2 G,,2 G,>G, | A,A,=B,B, CC C,>C, | %100
w: |* le- lu- ia, re- sur-|re- xit, re- sur- re- xit, re- sur-|
 D,D,E,E, F,F, z/ F,/E,/D,/ | C,/E,/D,/F,/ E,/G,/F,/A,/ G,F, G,2 | C,4 z4 | z8 | %104
w: re- xit si- cut di- xit, al- * *|* * * * * * * * * le- lu-|ia,||
 z/ B,/A,/G,/ F,2 z/ F,/_E,/D,/ C,2 | z4 z2 z/ F,/G,/A,/ | %106
w: al- * * * * * * *||
 B,/B,,/C,/D,/ _E,/G,/F,/E,/ D,/F,/E,/D,/ C,/G,/A,/B,/ | C/C,/D,/E,/ F,/F,/G,/A,/ B,G, A,2 | %108
w: |* * * * * * * * * le- lu-|
 D,2 D,>D, E,E, ^F,>F, | G,G, G,>G, A,A,=B,B, | CC z/ C,/D,/E,/ F,C, G,2 | %111
w: ia, re- sur- re- xit, re- sur-|re- xit, re- sur- re- xit si- cut|di- xit, al- * * * le- lu-|
 C,/ C/B,/A,/ G,2 z/ B,/A,/G,/ F,/A,/G,/F,/ | E,/G,/F,/E,/ D,/F,/E,/D,/ C,2 z/ C,/D,/E,/ | %113
w: ia, al- * * * * * * * * * *||
 F,2 z/ F,/G,/A,/ B,/C/A,/B,/ G,2 | z/ G,/A,/B,/ C/D/B,/C/ A,2 z/ F,/E,/D,/ | %115
w: ||
 C,2 z/ C/B,/A,/ G,2 z/ B,/A,/G,/ | F,/A,/G,/B,/ A,/C/B,/D/ CB, C2 | %117
w: |* * * * * * * * * le- lu-|
 F,2 z/ F,/G,/A,/ B,2 z/ B,/A,/G,/ | F,/A,/G,/B,/ A,/C/B,/D/ CB, C2 | F,2 B,F, C,2 !fermata!F,2 | %120
w: ia, al- * * * * * *|* * * * * * * * * le- lu-|ia, al- le- lu- ia.|
 z8 || z2 D,4 F,2 | B,,4 A,,4 | z2 A,4 A,C | F,4 E,4 | z ^C,C,D, D,2 D,2 | %126
w: |O- ra,|o- ra,|o- ra pro|no- bis,|Re- gi- na cæ- li,|
 z ^F,F,G, G,>A, G,/A,/G,/A,/ | B,>C B,/C/B,/C/ D C/B,/ A,2 | z2 B,4 A,2 | z2 F,4 _E,D, | %130
w: Re- gi- na cæ- * * * * *|* * * * * * * li, * *|o- ra,|o- ra pro|
 D,2 D,2 z2 B,2- | B,2 A,G, G,4- | G,2 ^F,2 A,G,/A,/ F,D, | A,,8 | D,8 | %135
w: no- bis, o-|* ra pro no-|* bis De- * * * *||um.|
[M:9/8] z D,E, F, F,G, A, A,,2 | D,3 z3 z3 | z D,E, F, F,G, A, A,,2 | D, D,E, F,F,G, A,G,F, | %139
w: al- * * le- * lu- *|ia,|al- * * le- * lu- *|ia,al- * * * * * * * *|
 CF,G, A,A,B, C C,2 | F,3 z3 z3 | z F,G, A, A,B, C C,2 | F,A,B, CC,D, E,D,C, | %143
w: * * * * le- * lu- *|ia,|al- * * le- * lu- *|ia, * * * * * * * *|
 G, C,D, E, E,F, G,3 | C,3 z3 z3 | z C,D, E, E,F, G,3 | C, E,F, G,G,A, B,A,G, | %147
w: * al- * * le- * lu-|ia,|al- * * le- * lu-|ia, * * * * * * * *|
 D G,A, B, B,C D D,2 | G,3 z3 z3 | z G,,A,, B,, B,,C, D,3 | G,,3 z3 z3 | z G,A, B,3 z F,G, | %152
w: * al- * * le- * lu- *|ia,|al- * * le- * lu-|ia,|al- * * * *|
 A,3 z E,F, G,3 | z D,E, F,3 z C,D, | _E,3 z B,,C, D,D,E, | F,A,B, C3 z G,A, | %156
w: ||||
 B, B,,C, D, D,_E, F,3 | B,,3 z3 z3 | z B,,C, D, D,_E, F,3 | B,,3 z3 z3 | z B,C DA,B, CG,A, | %161
w: * * * * le- * lu-|ia,|al- * * le- * lu-|ia,|al- * * * * * * *|
 B,F,G, A,E,F, G,D,E, | F, F,G, A, A,B, C C,2 | F,3 z3 z3 | z F,G, A, A,B, C C,2 | F,3 z3 z3 | z9 | %167
w: |* * * * le- * lu- *|ia,|al- * * le- * lu- *|ia,||
[M:4/4] z F, C,2 D,D, A,,2 | B,,B, A,B,/A,/ G,2 F,2 | C,8 | F,16 |] %171
w: al- * * * *|* * * * * * le-|lu-|ia.|
V:2
 x8 | z8 | x8 | g3 f ec d2 | ca ba/a/ a f2 e- | e d2 c fe/d/ e/g/f/e/ | dc d/e/f/g/ ea ^fg/f/ | %7
 e>f g/a/b/c'/ a/b/g/a/ f/g/e/f/ | d/e/d/e/ f/g/a/b/ g/a/g/a/ b2 | a/f/d/e/ f2 f3 e | f8 | %11
[M:3/2] z4 z4 c4 | f4 f4 g4 | a4 d4 e4 | f4 f4 g4 | a4 f8 | b2 c'2 b2 a2 g2 f2 | e8 e4 | %18
 a2 b2 a2 g2 f2 e2 | d2 c2 d2 e2 f2 g2 | a8 a4 | g4 a4 b4 | c'6 b2 a2 g2 | g8 g4 | a8 c4 | %25
 f4 f4 g4 | a4 d4 e4 | f4 c4 z4 | z12 | z12 | z12 | z12 | z4 z4 c'4 | a4 f4 z4 | z12 | z12 | z12 | %37
 z12 | z12 | z12 | z12 | z12 | z2 c2 d2 e2 f2 e2 | d2 f2 g2 a2 b2 a2 | g2 a2 g2 f2 e2 d2 | %45
 c2 e2 f2 g2 a2 g2 | f6 g2 a4 | a4 g8 | a12 | z12 | z12 | z12 | z12 | z4 z4 g4 | e4 c4 z4 | %55
 z4 z4 g4 | e2 f2 e2 d2 c2 =B2 | c12 | z12 | z12 | z12 | z12 | z12 | z2 d2 e2 f2 g2 f2 | %64
 e4 z2 e2 f2 g2 | a2 e2 f2 g2 a2 g2 | f2 g2 a2 g2 f2 e2 | d2 A2 B2 c2 d2 c2 | B4 z2 G2 A2 B2 | %69
 c2 d2 e2 f2 g2 f2 | e4 z2 e2 f2 g2 | a2 e2 f2 g2 a2 g2 | f6 g2 a4 | g8 g4 | a8 z4 | %75
 z4 a2 b2 g2 b2 | a4 c4 c4 | c8 c4 | d6 e2 f4- | f4 f6 e2 | f4 A4 G4 | A8 A4 | B8 c4- | c4 G8 | %84
 A12 |[M:4/4] _e8 | _e4 d4- | d4 _e2 d2 | c4 d4 | d2 g2 ^f4 | z4 z/ d/e/f/ g/a/f/g/ | %91
 _e2 z/ c/d/e/ f/g/e/f/ d2 | gf f>e d/A/B/c/ d/e/c/d/ | B/c/A/B/ G2 z/ g/a/b/ c'/d'/b/c'/ | %94
 a/b/g/a/ f2 z/ f/g/a/ b2 | z/ g/a/b/ c'2 z/ c/d/e/ f/g/_e/f/ | d4 z/ B/c/d/ _e2 | %97
 z/ c/d/e/ f/f/g/a/ b/c'/a/b/ g/a/f/g/ | _eg g>^f g4 | z8 | z8 | z8 | z2 e>e ff gg | aa A>A BB cc | %104
 d2 z/ f/_e/d/ c2 z/ e/d/c/ | B/d/c/_e/ d/f/e/g/ fg c2 | d2 z2 z4 | z4 z2 z/ g/f/e/ | %108
 f2 z/ d/c/B/ c2 z/ f/g/a/ | =b2 g>g ff f/a/g/f/ | e2 z/ e/f/g/ a/c/d/e/ d2 | %111
 c2 z/ g/f/e/ d/d/c/B/ A2 | z/ c/d/e/ f/a/g/f/ e2 z/ e/f/g/ | a/b/g/a/ f2 f2 z/ d/e/f/ | %114
 g/a/f/g/ e/f/d/e/ c/c/d/e/ f2 | z/ c'/b/a/ g2 z/ b/a/g/ fg | a2 z/ a/g/f/ ef f>e | %117
 f/c/d/e/ f2 z/ b/a/g/ fg | a2 z/ a/g/f/ ef f>e | f2 dc c>B A2 | z8 || f8 | d4 ^c4 | d8 | a4 ^g4 | %125
 a4 ^f4 | d4 B2 c2 | d2 e2 ^f2 d2 | B2 g2 e4- | e2 d2 c4- | c2 B4 G2- | G2 ^F2 B2 _e2 | %132
 ^c2 d2 c2 f2 | e3 f g4 | ^f8 |[M:9/8] z9 | z fg agf efg | f3 z3 z3 | z9 | z9 | z ab c'ba gab | %141
 a3 z3 z3 | z9 | z9 | z ef gfe def | e3 z3 z3 | z9 | z9 | z bc' d'c'b abc' | b3 z3 z3 | %150
 z Bc dcB ABc | B3 z fg a3 | z ef g3 z de | f3 z cd _e3 | z Bc dde ffg | a3 z ga b3 | z9 | %157
 z d_e fed cde | d3 z3 z3 | z d_e fed cde | d3 z cd _e3 | z AB c3 z fg | a3 z3 z3 | z ab c'ba gab | %164
 a3 z3 z3 | z AB cBA GAB | A3 z3 z3 |[M:4/4] z a ga/g/ ff ef/e/ | dd cd/c/ B2 Aa | g6 ab | a16 |] %171
V:3
 x8 | z8 | x8 | c3 B Aa gf/e/ | f f2 e fa ba/g/ | af g2 =B2 c/e/d/c/ | =Bc c>B ce d2 | %7
 c f2 e c3 c | f/g/f/g/ a f2 g/f/ e/f/d/e/ | f2 z/ c/d/c/ B4 | A8 |[M:3/2] z12 | z4 z4 c4 | %13
 f4 f4 g4 | a4 d4 e4 | a2 b2 a2 g2 f2 e2 | d8 d4 | e2 f2 e2 d2 c2 B2 | f2 g2 f2 e2 d2 c2 | B8 B4 | %20
 A2 G2 A2 B2 c2 d2 | e4 f4 g4 | a6 g2 f4 | f8 e4 | f8 z4 | z4 z4 c4 | f4 f4 g4 | a4 f4 z4 | z12 | %29
 z12 | z12 | z12 | z4 z4 e4 | f4 c4 z4 | z12 | z12 | z12 | z12 | z12 | z12 | z12 | %41
 z2 G2 A2 B2 c2 B2 | A2 A2 B2 c2 d2 c2 | B2 d2 e2 f2 g2 f2 | e2 f2 e2 d2 c4 | z2 c2 d2 e2 f2 e2 | %46
 d6 e2 f4 | f8 e4 | f12 | z12 | z12 | z12 | z12 | z4 z4 =B4 | c4 G4 z4 | z4 z4 =B4 | %56
 c2 d2 c2 =B2 c2 d2 | e12 | z12 | z12 | z12 | z12 | z12 | z4 z2 G2 A2 B2 | c2 G2 A2 B2 c2 B2 | %65
 A4 z2 A2 B2 c2 | d2 e2 f2 e2 d2 c2 | B4 z2 d2 e2 f2 | g2 d2 e2 f2 g2 f2 | e2 f2 g2 f2 e2 d2 | %70
 c12 | c8 A4 | A4 F4 f4 | f8 e4 | f8 z4 | z4 f2 g2 e2 g2 | f4 A4 G4 | A8 A4 | B8 c4- | c4 G8 | %80
 A4 c4 c4 | c8 c4 | d6 e2 f4 | f8 e4 | f12 |[M:4/4] G8 | G4 B4- | B4 G4 | G2 ^F2 B2 Ad | d3 c A4 | %90
 z/ A/B/c/ d/e/c/d/ B/c/A/B/ G/G/A/B/ | c/d/B/c/ A2 z/ A/B/c/ d/e/c/d/ | Bd d>^c d4 | %93
 z/ d/e/f/ g/a/f/g/ e/f/d/e/ c2 | z/ c/d/e/ f/g/_e/f/ d/d/e/f/ g/a/f/g/ | %95
 e/f/d/e/ c2 z/ A/B/c/ d2 | z/ f/g/a/ b/c'/a/b/ g/G/A/B/ c/d/B/c/ | A/A/B/c/ d/e/c/d/ B3 B | %98
 cB B>A G4 | z8 | z8 | z8 | z2 c>c dd ee | ff F>F GG AA | B/d/c/B/ A2 A2 z/ c/B/A/ | %105
 G/B/A/c/ B/d/c/_e/ dB B>A | F2 z2 z4 | z8 | z/ d/c/B/ A2 z/ e/f/g/ a2 | z2 =B>B cc dd | %110
 G/G/A/B/ c2 c2 z/ a/g/f/ | e/c/e/f/ g2 z2 z/ c/B/A/ | G/B/A/G/ F2 z/ G/A/B/ c2 | %113
 z/ c/d/e/ f/g/_e/f/ d/e/c/d/ B2 | z2 z/ G/A/B/ c2 z/ a/g/f/ | e2 z/ e/d/c/ d3 e | f2 c3 d c>B | %117
 A2 z/ A/B/c/ d3 e | f2 c3 d c>B | A2 ff f>e f2 | z8 || A8 | A2 G2 A4 | c4 e4 | e2 d2 e4 | e4 A4 | %126
 A4 d4 | B4 A4- | A2 G4 G2 | F4 A4 | D4 d4 | c4 d2 B2 | A4 A2 d2 | d6 ^c2 | d8 |[M:9/8] z9 | %136
 z de fed ^cde | d3 z3 z3 | z9 | z9 | z fg agf efg | f3 z3 z3 | z9 | z9 | z cd edc =Bcd | %145
 c3 z3 z3 | z9 | z9 | z ga bag ^fga | g3 z3 z3 | z GA BAG ^FGA | G3 z de f3 | z cd e3 z Bc | %153
 d3 z AB c3 | z GA B2 e d3 | c3 z _ef g3 | z9 | z Bc dcB ABc | B3 z3 z3 | z Bc dcB ABc | %160
 B de f3 z Bc | d3 z GA B3 | A3 z3 z3 | z fg agf efg | f3 z3 z3 | z FG AGF EFG | F3 z3 z3 | %167
[M:4/4] z f ef/e/ dd cd/c/ | B2 f2 e2 f2 | f4 e4 | f16 |] %171
V:4
 x8 | z8 | x8 | F,3 G, A,2 B,2 | A,2 G,2 F,2 G,2 | F,2 E,2 D,2 C,2 | G,A, F,G, C, C2 B,- | %7
w: |||* * 6 *|6 7``6 * 7``6|7`6 7`6 6`x *|x * * * * * *|
 B, A,2 G, F,E, D,C, | B,,2 A,,2 B,,2 C,2 | D,2 A,,2 B,,2 C,2 | F,,8 |[M:3/2] F,12 | F,8 E,4 | %13
w: ||||||
 D,8 C,4 | F,4 B,4 G,4 | F,2 G,2 F,2 E,2 D,2 C,2 | B,,8 B,,4 | C,2 D,2 C,2 B,,2 A,,2 G,,2 | %18
w: |* * 6||||
 F,,8 F,,4 | B,,2 A,,2 B,,2 C,2 D,2 E,2 | F,2 E,2 F,2 G,2 A,2 B,2 | C8 B,4 | A,12 | B,4 C4 C,4 | %24
w: ||||6||
 F,8 E,4 | F,8 E,4 | D,8 C,4 | F,8 E,4 | F,8 A,4 | B,4 G,4 C4 | F,12 | C,8 C,4 | F,8 C,4 | %33
w: |||||||||
 F,8 C,4 | F,8 C,4 | F,12 | B,,12 | G,,12 | C,12 | F,,8 F,4 | D,6 E,2 F,4 | B,,4 C,8 | F,,12 | %43
w: ||||||||||
 B,,12 | C,12 | A,,12 | B,,4 G,,4 F,,4 | C,12 | F,12 | D,12 | G,12 | E,4 C,8 | F,4 G,4 A,4 | G,12 | %54
w: ||||||||||x|
 C,8 G,,4 | C,8 G,,4 | C,8 G,,4 | C,12 | A,,12 | D,12 | B,,12 | C,12 | F,8 E,4 | F,4 G,8 | C,12 | %65
w: |* x|* x|||||||||
 F,,8 F,4 | D,6 F,2 G,2 A,2 | B,12 | G,12 | C,6 G,2 A,2 B,2 | C12 | A,12 | D,6 E,2 F,4 | B,,4 C,8 | %74
w: |||||||||
 F,,4 F,4 E,4 | F,8 C,4 | F,,4 F,4 E,4 | F,12 | B,,8 A,,4- | A,,4 C,8 | F,,4 F,4 E,4 | F,12 | %82
w: ||||||||
 B,,8 A,,4- | A,,4 C,8 | F,,12 |[M:4/4] C,8 | C,4 G,4- | G,4 C2 B,2 | A,4 G,2 F,2 | _E,4 D,4 | %90
w: ||||* z|* * 6|6```x * 6|7````6 x|
 D,3 D, G,F, _E,D, | C,2 F,2 D,2 B,A, | G,D, A,,2 D,3 D, | G,3 G, CB, A,G, | F,4 B,2 G,2 | %95
w: x * * * * *|z * * * *|* * 4```3 * *|||
 C2 C,2 F,_E, D,C, | B,,4 _E,2 C,2 | F,2 D,2 G,F, _E,D, | C,G,, D,2 G,,2 G,2 | A,2 =B,2 C2 C,2 | %100
w: |* * z||z * * * *||
 D,2 E,2 F,2 F,,2 | C,D, E,F, G,F, G,2 | C,2 C2 B,2 G,2 | F,4 _E,2 C,2 | B,,2 F,2 F,,2 C,2 | %105
w: |* * * * x * 4``3|* * * 6||* * * z|
 G,,2 G,2 D,_E, F,2 | B,,2 _E,2 D,2 C,B,, | A,,G,, F,,2 B,,G,, A,,2 | D,2 D,2 E,2 ^F,2 | %109
w: * * 6 * *||* * * * * 4```3|* * 6 *|
 G,4 A,2 =B,2 | C2 C,2 F,C, G,2 | C,2 G,2 B,2 F,2 | E,2 D,2 C,2 E,2 | F,2 A,2 B,2 G,2- | %114
w: x 6 *|* * * * 4````3|* z * *|||
 G,2 C2 A,2 F,2 | C,2 C2 G,2 B,2 | F,G, A,B, CB, C2 | F,2 A,2 B,2 B,,2 | F,G, A,B, CB, C2 | %119
w: ||* * * * * * 4````3||* * * * * * 4```3|
 F,2 B,F, C,2 F,,2 | z8 || D,8 | B,,4 A,,4 | A,8 | F,4 E,4 | ^C,4 D,4 | ^F,4 G,2 A,2 | %127
w: |||7````6 x|z|7````6 x|* x|* z *|
 B,2 C2 D2 ^F,2 | G,4 ^C,4 | D,4 A,,4 | B,,4 B,,4 | A,,4 G,,4- | G,,2 ^F,,2 A,,4- | A,,8 | D,8 | %135
w: 6 * * *|z 7```6|9```8 6`````5|9```8 5```6|7````6 5````````6````````Z2|* * 33``````4|4`````3||
[M:9/8] z D,E, F,2 G, A,3 | D,3 D,3 A,,3 | D, D,E, F,2 G, A,3 | D,2 E, F,2 G, A,G,F, | %139
w: |* * x|||
 CF,G, A,2 B, C C,2 | F,3 F,3 C,3 | F, F,G, A,2 B, C C,2 | F,3 C,3 E,3 | G, C,D, E,2 F, G,3 | %144
w: |||* * 6|x * * 6 * *|
 C,3 C,3 G,3 | C, C,D, E,2 F, G,3 | C,3 G,3 B,3 | D G,A, B,2 C D D,2 | G,3 G,,3 D,3 | %149
w: * * x|* * * 6 * *|* 6 6||* * x|
 G,, G,,A,, B,,2 C, D,3 | G,,3 G,,3 D,3 | G,, G,A, B,3 z F,G, | A,3 z E,F, G,3 | %153
w: |* * x|||
 z D,E, F,3 z C,D, | _E,3 z B,,C, D,2 E, | F, A,B, C3 z G,A, | B, B,,C, D,2 _E, F,3 | %157
w: ||* * * z * *||
 B,,3 B,,3 F,,3 | B,, B,,C, D,2 _E, F,3 | B,,3 B,,3 F,,3 | B,, B,C DA,B, CG,A, | %161
w: |||* * * * * * z * *|
 B,F,G, A,E,F, G,D,E, | F,F,G, A,2 B, C C,2 | F,3 F,3 C3 | F, F,G, A,2 B, C C,2 | F,3 F,,3 C,3 | %166
w: |||||
 F,,3 z3 z3 |[M:4/4] z F, C,2 D,2 A,,2 | B,,2 A,,2 G,,2 F,,2 | C,8 | F,,16 |] %171
w: |* * * 5|* 6 6 *|||

